X:85
T:Lidia's Ramble
M:2/4
L:1/8
B:Thompson's Compleat Collection of 200 Favourite Country Dances, vol. 1 (London, 1757)
Z:Transcribed and edited by Fynnian Titford-Mock, 2007
Z:abc's:AK/Fiddler's Companion
K:D
d2 (3Bcd|c A2G|FA gf|e2 A2|d2 fe/f/|gBAG|FdEc|d2 D2:|
|:d2 fd|(3Bcd (3dcB|(3gfe ed|{d}c2 AG|(3FGA Dd|(3cde Aa|(3gfe Ac|d2 D2:|

